inst/assets/svg/wi-tsunami.svg

<?xml version="1.0" encoding="UTF-8"?>
<svg xmlns="http://www.w3.org/2000/svg" xmlns:xlink="http://www.w3.org/1999/xlink" width="30pt" height="30pt" viewBox="0 0 30 30" version="1.1">
<g id="surface1011">
<path style=" stroke:none;fill-rule:nonzero;fill:rgb(0%,0%,0%);fill-opacity:1;" d="M 5.070313 21.238281 C 5.070313 21.078125 5.128906 20.941406 5.238281 20.820313 C 5.359375 20.699219 5.488281 20.640625 5.648438 20.640625 L 6.050781 20.640625 C 5.839844 19.980469 5.660156 19.289063 5.519531 18.570313 C 5.308594 17.46875 5.199219 16.46875 5.199219 15.578125 C 5.199219 13.871094 5.5 12.261719 6.109375 10.769531 C 6.730469 9.308594 7.589844 8.058594 8.699219 7.011719 C 9.820313 5.949219 11.121094 5.140625 12.601563 4.589844 C 14.109375 4.019531 15.738281 3.730469 17.511719 3.730469 C 18.570313 3.730469 19.570313 3.820313 20.511719 4.011719 C 21.449219 4.230469 22.359375 4.570313 23.238281 5.039063 L 24.941406 5.949219 L 23.058594 6.339844 C 22.480469 6.46875 22.078125 6.730469 21.859375 7.121094 C 21.699219 7.441406 21.710938 7.808594 21.890625 8.230469 L 22.300781 9.179688 L 21.28125 9.230469 C 20.851563 9.261719 20.449219 9.351563 20.101563 9.5 C 19.769531 9.660156 19.578125 9.820313 19.519531 10 C 19.410156 10.230469 19.53125 10.558594 19.878906 11 L 20.691406 11.960938 L 19.429688 12.140625 C 17.878906 12.371094 16.609375 12.691406 15.621094 13.101563 C 14.628906 13.511719 13.851563 14.039063 13.269531 14.691406 C 12.710938 15.308594 12.289063 16.109375 12.019531 17.058594 C 11.75 18.019531 11.601563 19.210938 11.570313 20.648438 L 16.828125 20.648438 L 16.828125 17.871094 L 16.449219 18.101563 C 16.308594 18.191406 16.160156 18.210938 16 18.171875 C 15.828125 18.128906 15.710938 18.039063 15.628906 17.890625 C 15.539063 17.75 15.519531 17.601563 15.550781 17.441406 C 15.578125 17.28125 15.671875 17.148438 15.820313 17.058594 L 19.640625 14.679688 L 19.660156 14.660156 C 19.671875 14.660156 19.671875 14.660156 19.671875 14.648438 L 19.691406 14.648438 C 19.699219 14.648438 19.710938 14.648438 19.71875 14.640625 C 19.789063 14.621094 19.859375 14.589844 19.949219 14.570313 L 20.011719 14.570313 C 20.019531 14.578125 20.03125 14.589844 20.039063 14.589844 L 20.109375 14.589844 C 20.109375 14.601563 20.121094 14.601563 20.128906 14.601563 L 20.160156 14.601563 L 20.179688 14.609375 L 20.199219 14.609375 C 20.210938 14.621094 20.21875 14.628906 20.21875 14.640625 L 20.238281 14.640625 C 20.25 14.640625 20.25 14.640625 20.25 14.648438 C 20.269531 14.648438 20.28125 14.648438 20.28125 14.660156 C 20.289063 14.660156 20.300781 14.660156 20.308594 14.671875 L 20.328125 14.679688 L 24.148438 17.03125 C 24.289063 17.121094 24.378906 17.25 24.421875 17.410156 C 24.449219 17.578125 24.429688 17.730469 24.339844 17.871094 C 24.261719 18.011719 24.140625 18.101563 23.96875 18.128906 C 23.800781 18.160156 23.648438 18.140625 23.519531 18.050781 L 23.210938 17.859375 L 23.210938 20.628906 L 24.171875 20.628906 C 24.328125 20.628906 24.460938 20.691406 24.570313 20.808594 C 24.679688 20.929688 24.730469 21.070313 24.730469 21.230469 C 24.738281 21.398438 24.679688 21.539063 24.570313 21.660156 C 24.460938 21.78125 24.320313 21.839844 24.171875 21.839844 L 5.648438 21.839844 C 5.488281 21.839844 5.351563 21.78125 5.238281 21.671875 C 5.128906 21.558594 5.070313 21.421875 5.070313 21.238281 Z M 6.621094 15.578125 C 6.621094 16.289063 6.71875 17.199219 6.921875 18.308594 C 7.070313 19.121094 7.25 19.828125 7.460938 20.429688 L 10.148438 20.429688 C 10.199219 18.980469 10.351563 17.78125 10.601563 16.839844 C 10.949219 15.570313 11.480469 14.53125 12.199219 13.75 C 12.929688 12.929688 13.890625 12.28125 15.089844 11.789063 C 15.910156 11.449219 16.949219 11.160156 18.199219 10.921875 L 18.121094 10.671875 C 18.019531 10.210938 18.050781 9.800781 18.210938 9.441406 C 18.429688 8.929688 18.859375 8.519531 19.488281 8.230469 C 19.558594 8.199219 19.621094 8.171875 19.679688 8.160156 C 18.820313 7.960938 17.949219 7.910156 17.078125 8.019531 C 16.089844 8.140625 15.160156 8.429688 14.300781 8.871094 C 13.191406 9.449219 12.191406 10.28125 11.289063 11.351563 C 11.191406 11.46875 11.058594 11.53125 10.910156 11.53125 C 10.789063 11.53125 10.691406 11.5 10.601563 11.429688 C 10.5 11.339844 10.441406 11.230469 10.429688 11.089844 C 10.421875 10.949219 10.449219 10.828125 10.539063 10.71875 C 11.539063 9.53125 12.648438 8.621094 13.878906 7.988281 C 14.859375 7.5 15.910156 7.179688 17.019531 7.039063 C 17.589844 6.96875 18.140625 6.960938 18.691406 7.019531 C 19.230469 7.078125 19.609375 7.140625 19.828125 7.191406 C 20.050781 7.238281 20.199219 7.28125 20.28125 7.308594 L 20.359375 7.339844 C 20.410156 7.03125 20.488281 6.75 20.601563 6.5 C 20.761719 6.210938 20.96875 5.941406 21.238281 5.699219 C 20.941406 5.609375 20.589844 5.511719 20.199219 5.421875 C 19.398438 5.238281 18.5 5.160156 17.511719 5.160156 C 15.929688 5.160156 14.460938 5.421875 13.089844 5.929688 C 11.75 6.441406 10.609375 7.148438 9.671875 8.070313 C 8.691406 8.980469 7.941406 10.070313 7.441406 11.328125 C 6.890625 12.648438 6.621094 14.070313 6.621094 15.578125 Z M 18.050781 20.640625 L 21.929688 20.640625 L 21.929688 17.121094 L 19.949219 15.910156 L 18.050781 17.101563 Z M 18.050781 20.640625 "/>
</g>
</svg>

<?xml version="1.0" encoding="utf-8"?>
<!-- Generator: Adobe Illustrator 22.0.1, SVG Export Plug-In . SVG Version: 6.00 Build 0)  -->
<svg version="1.1" id="Layer_1" xmlns="http://www.w3.org/2000/svg" xmlns:xlink="http://www.w3.org/1999/xlink" x="0px" y="0px"
	 viewBox="0 0 30 30" style="enable-background:new 0 0 30 30;" xml:space="preserve">
<path d="M5.07,21.24c0-0.16,0.06-0.3,0.17-0.42c0.12-0.12,0.25-0.18,0.41-0.18h0.4c-0.21-0.66-0.39-1.35-0.53-2.07
	c-0.21-1.1-0.32-2.1-0.32-2.99c0-1.71,0.3-3.32,0.91-4.81C6.73,9.31,7.59,8.06,8.7,7.01c1.12-1.06,2.42-1.87,3.9-2.42
	c1.51-0.57,3.14-0.86,4.91-0.86c1.06,0,2.06,0.09,3,0.28c0.94,0.22,1.85,0.56,2.73,1.03l1.7,0.91l-1.88,0.39
	c-0.58,0.13-0.98,0.39-1.2,0.78c-0.16,0.32-0.15,0.69,0.03,1.11l0.41,0.95l-1.02,0.05c-0.43,0.03-0.83,0.12-1.18,0.27
	c-0.33,0.16-0.52,0.32-0.58,0.5c-0.11,0.23,0.01,0.56,0.36,1l0.81,0.96l-1.26,0.18c-1.55,0.23-2.82,0.55-3.81,0.96
	s-1.77,0.94-2.35,1.59c-0.56,0.62-0.98,1.42-1.25,2.37c-0.27,0.96-0.42,2.15-0.45,3.59h5.26v-2.78l-0.38,0.23
	c-0.14,0.09-0.29,0.11-0.45,0.07c-0.17-0.04-0.29-0.13-0.37-0.28c-0.09-0.14-0.11-0.29-0.08-0.45s0.12-0.29,0.27-0.38l3.82-2.38
	l0.02-0.02c0.01,0,0.01,0,0.01-0.01h0.02c0.01,0,0.02,0,0.03-0.01c0.07-0.02,0.14-0.05,0.23-0.07h0.06
	c0.01,0.01,0.02,0.02,0.03,0.02h0.07c0,0.01,0.01,0.01,0.02,0.01h0.03l0.02,0.01h0.02c0.01,0.01,0.02,0.02,0.02,0.03h0.02
	c0.01,0,0.01,0,0.01,0.01c0.02,0,0.03,0,0.03,0.01c0.01,0,0.02,0,0.03,0.01l0.02,0.01l3.82,2.35c0.14,0.09,0.23,0.22,0.27,0.38
	c0.03,0.17,0.01,0.32-0.08,0.46c-0.08,0.14-0.2,0.23-0.37,0.26s-0.32,0.01-0.45-0.08l-0.31-0.19v2.77h0.96
	c0.16,0,0.29,0.06,0.4,0.18c0.11,0.12,0.16,0.26,0.16,0.42c0.01,0.17-0.05,0.31-0.16,0.43c-0.11,0.12-0.25,0.18-0.4,0.18H5.65
	c-0.16,0-0.3-0.06-0.41-0.17C5.13,21.56,5.07,21.42,5.07,21.24z M6.62,15.58c0,0.71,0.1,1.62,0.3,2.73
	c0.15,0.81,0.33,1.52,0.54,2.12h2.69c0.05-1.45,0.2-2.65,0.45-3.59c0.35-1.27,0.88-2.31,1.6-3.09c0.73-0.82,1.69-1.47,2.89-1.96
	c0.82-0.34,1.86-0.63,3.11-0.87l-0.08-0.25c-0.1-0.46-0.07-0.87,0.09-1.23c0.22-0.51,0.65-0.92,1.28-1.21
	c0.07-0.03,0.13-0.06,0.19-0.07c-0.86-0.2-1.73-0.25-2.6-0.14c-0.99,0.12-1.92,0.41-2.78,0.85c-1.11,0.58-2.11,1.41-3.01,2.48
	c-0.1,0.12-0.23,0.18-0.38,0.18c-0.12,0-0.22-0.03-0.31-0.1c-0.1-0.09-0.16-0.2-0.17-0.34s0.02-0.26,0.11-0.37
	c1-1.19,2.11-2.1,3.34-2.73c0.98-0.49,2.03-0.81,3.14-0.95c0.57-0.07,1.12-0.08,1.67-0.02c0.54,0.06,0.92,0.12,1.14,0.17
	s0.37,0.09,0.45,0.12l0.08,0.03c0.05-0.31,0.13-0.59,0.24-0.84c0.16-0.29,0.37-0.56,0.64-0.8c-0.3-0.09-0.65-0.19-1.04-0.28
	c-0.8-0.18-1.7-0.26-2.69-0.26c-1.58,0-3.05,0.26-4.42,0.77c-1.34,0.51-2.48,1.22-3.42,2.14c-0.98,0.91-1.73,2-2.23,3.26
	C6.89,12.65,6.62,14.07,6.62,15.58z M18.05,20.64h3.88v-3.52l-1.98-1.21l-1.9,1.19V20.64z"/>
</svg>
